data/styles/clear/style-night/symbols/taxi-m.svg

<svg height="24" viewBox="0 0 24 24" width="24"><g fill="none" fill-rule="evenodd"><circle cx="12" cy="12" fill="#fff" opacity=".4" r="12"/><circle cx="12" cy="12" fill="#3d3d36" r="11"/><path d="m17.4505714 10.194c-.0754285-.65925-.7508571-1.194-1.5085714-1.194h-7.88485714c-.75771429 0-1.43314286.53475-1.50857143 1.194l-.54857143 4.806h12zm-8.02199997 3.306h-1.71428572v-1.5h1.71428572zm1.71428567-1.5h-1.71428567v-1.5h1.71428567zm1.7142858 1.5h-1.7142858v-1.5h1.7142858zm1.7142857-1.5h-1.7142857v-1.5h1.7142857zm1.7142857 1.5h-1.7142857v-1.5h1.7142857z" fill="#fff" opacity=".6"/></g></svg>

<svg width="24" height="24" viewBox="0 0 24 24">
  <g fill="none" fill-rule="evenodd">
    <circle cx="12" cy="12" r="12" fill="#FFF" opacity=".4"/>
    <circle cx="12" cy="12" r="11" fill="#3D3C36"/>
    <path fill="#FFF" d="M17.4505714,10.194 C17.3751429,9.53475 16.6997143,9 15.942,9 L8.05714286,9 C7.29942857,9 6.624,9.53475 6.54857143,10.194 L6,15 L18,15 L17.4505714,10.194 L17.4505714,10.194 Z M9.42857143,13.5 L7.71428571,13.5 L7.71428571,12 L9.42857143,12 L9.42857143,13.5 L9.42857143,13.5 Z M11.1428571,12 L9.42857143,12 L9.42857143,10.5 L11.1428571,10.5 L11.1428571,12 L11.1428571,12 Z M12.8571429,13.5 L11.1428571,13.5 L11.1428571,12 L12.8571429,12 L12.8571429,13.5 L12.8571429,13.5 Z M14.5714286,12 L12.8571429,12 L12.8571429,10.5 L14.5714286,10.5 L14.5714286,12 L14.5714286,12 Z M16.2857143,13.5 L14.5714286,13.5 L14.5714286,12 L16.2857143,12 L16.2857143,13.5 L16.2857143,13.5 Z" opacity=".6"/>
  </g>
</svg>
